%%% empdefault.mp -- do not edit, generated automatically by dissertation.tex
verbatimtex
\documentclass [12pt]{article}
\begin {document}
etex;
beginfig(1);
LaTeX_unitlength := 1.0pt;
w := 100*LaTeX_unitlength;
h := 100*LaTeX_unitlength;
input metauml;
beginfig(1);
    Class.A("Point")("+x: int", "+y:int")();
    drawObject(A);
endfig;
end
endfig;
